src/images/std-icons/std-heart.svg

<svg xmlns="http://www.w3.org/2000/svg" width="512" height="512" viewBox="0 0 512 512">
  <title>heart</title>
  <path fill="#000" fill-rule="nonzero" d="M281.904853,438.014293 C267.270294,451.402503 244.810601,451.31842 230.276693,437.821013 L228.164693,435.88672 C127.403307,344.010453 61.5726933,283.855573 64.0686933,208.80704 C65.1944469,175.63417 81.822063,144.912201 108.9792,125.828267 C156.167494,94.0735346 219.745275,103.274731 255.994667,147.104853 C292.193908,103.18553 355.844643,93.9737753 403.010133,125.828267 C430.167505,144.912019 446.795249,175.634078 447.920853,208.80704 C450.608853,283.855573 384.585387,344.010453 283.824853,436.273493 L281.904853,438.014293 Z"/>
</svg>

<svg xmlns="http://www.w3.org/2000/svg" viewBox="0 0 512 512">
  <title>
    heart
  </title>
  <path d="M281.9 438.01a38.09 38.09 0 0 1-51.62-.19l-2.12-1.93C127.4 344 61.57 283.86 64.06 208.8a105.8 105.8 0 0 1 44.92-82.98 110.63 110.63 0 0 1 147.01 21.27 110.43 110.43 0 0 1 147.02-21.27 105.8 105.8 0 0 1 44.91 82.98c2.69 75.05-63.33 135.2-164.1 227.46l-1.92 1.74z"/>
</svg>
